X:149
T:score230
L:1/8
Q:1/4=96
M:6/8
I:linebreak $
K:G
 Bc | d>ed B>AG | B3 BBc | de/d/e/d/ c/B/c/B/A/G/ |$ B3 EEG | A>BA GFG | E3 G2 F | EFG AG>F |$ %8
 G3- G z z |] %9
